Newaita-dark/actions/32/kdenlive-custom-effect.svg

<svg height="32" viewBox="0 0 32 32" width="32" xmlns="http://www.w3.org/2000/svg"><g fill="#e0e0e0"><path d="m15.835938 2.894531c-.464844.015625-.890626.277344-1.113282.683594l-3.589844 6.554687-7.339843 1.386719c-.472657.089844-.859375.429688-1.007813.886719-.148437.457031-.039062.960938.292969 1.3125l5.121094 5.4375-.945313 7.410156c-.0625.476563.140625.949219.53125 1.234375.390625.28125.902344.328125 1.335938.125l6.09375-2.878906v-2.914063l-5.046875 2.382813.722656-5.644531c.050781-.390625-.078125-.78125-.347656-1.066406l-3.898438-4.144532 5.589844-1.054687c.386719-.074219.71875-.316407.910156-.664063l2.730469-4.988281 2.734375 4.988281c.191406.347656.523437.589844.910156.664063l5.589844 1.054687-1.699219 1.804688h3.621094l1.644531-1.746094c.328125-.351562.441407-.855469.292969-1.3125s-.535156-.796875-1.007812-.886719l-7.339844-1.386719-3.589844-6.554687c-.238281-.433594-.699219-.695313-1.195312-.683594zm0 0"/><path d="m27.785156 18.46875c-.519531-.519531-1.355468-.519531-1.871094 0l-5.019531 5.015625c-.050781.03125-.101562.066406-.144531.109375l2.839844 2.84375c.046875-.046875.082031-.09375.113281-.144531l5.015625-5.019531c.519531-.519532.519531-1.351563 0-1.871094zm-7.96875 6.0625-.46875.46875c-.0625.0625-.113281.132812-.144531.214844l-1.40625 3.273437c-.242187.570313.332031 1.144531.902344.902344l3.273437-1.40625c.082032-.03125.152344-.082031.214844-.144531l.46875-.46875zm0 0"/></g></svg>

<svg xmlns="http://www.w3.org/2000/svg" xmlns:xlink="http://www.w3.org/1999/xlink" width="32px" height="32px" viewBox="0 0 32 32" version="1.1">
<g id="surface1">
     <defs>
  <style id="current-color-scheme" type="text/css">
   .ColorScheme-Text { color:#eeeeee; } .ColorScheme-Highlight { color:#424242; }
  </style>
 </defs>
<path style="fill:currentColor" class="ColorScheme-Text" d="M 15.835938 2.894531 C 15.371094 2.910156 14.945312 3.171875 14.722656 3.578125 L 11.132812 10.132812 L 3.792969 11.519531 C 3.320312 11.609375 2.933594 11.949219 2.785156 12.40625 C 2.636719 12.863281 2.746094 13.367188 3.078125 13.71875 L 8.199219 19.15625 L 7.253906 26.566406 C 7.191406 27.042969 7.394531 27.515625 7.785156 27.800781 C 8.175781 28.082031 8.6875 28.128906 9.121094 27.925781 L 15.214844 25.046875 L 15.214844 22.132812 L 10.167969 24.515625 L 10.890625 18.871094 C 10.941406 18.480469 10.8125 18.089844 10.542969 17.804688 L 6.644531 13.660156 L 12.234375 12.605469 C 12.621094 12.53125 12.953125 12.289062 13.144531 11.941406 L 15.875 6.953125 L 18.609375 11.941406 C 18.800781 12.289062 19.132812 12.53125 19.519531 12.605469 L 25.109375 13.660156 L 23.410156 15.464844 L 27.03125 15.464844 L 28.675781 13.71875 C 29.003906 13.367188 29.117188 12.863281 28.96875 12.40625 C 28.820312 11.949219 28.433594 11.609375 27.960938 11.519531 L 20.621094 10.132812 L 17.03125 3.578125 C 16.792969 3.144531 16.332031 2.882812 15.835938 2.894531 Z M 15.835938 2.894531 "/>
     <defs>
  <style id="current-color-scheme" type="text/css">
   .ColorScheme-Text { color:#eeeeee; } .ColorScheme-Highlight { color:#424242; }
  </style>
 </defs>
<path style="fill:currentColor" class="ColorScheme-Text" d="M 27.785156 18.46875 C 27.265625 17.949219 26.429688 17.949219 25.914062 18.46875 L 20.894531 23.484375 C 20.84375 23.515625 20.792969 23.550781 20.75 23.59375 L 23.589844 26.4375 C 23.636719 26.390625 23.671875 26.34375 23.703125 26.292969 L 28.71875 21.273438 C 29.238281 20.753906 29.238281 19.921875 28.71875 19.402344 Z M 19.816406 24.53125 L 19.347656 25 C 19.285156 25.0625 19.234375 25.132812 19.203125 25.214844 L 17.796875 28.488281 C 17.554688 29.058594 18.128906 29.632812 18.699219 29.390625 L 21.972656 27.984375 C 22.054688 27.953125 22.125 27.902344 22.1875 27.839844 L 22.65625 27.371094 Z M 19.816406 24.53125 "/>
</g>
</svg>
